X:2297
T:Gold Ring, The
O:england
R:jig
M:6/8
L:1/8
K:G
BAG ~A2d|cAG ~G2A|BAG A2d|cAG FGA|
BAG A2d|cAG GBd|~g3 afd|cAG G2A:|
|:~B3 Bdc|~A3 dcA|~G3 GFG|ADE FGA|
~B3 Bdc|~A3 dAG|FDE F2d|1 cAG G2A:|2 cAG G2g||
|:fdd edd|fdd edd|fdd edd|dcA GBd|
fdd edd|fdd ed^c|dfa ged|1 cAG G2g:|2 cAG GBd||
|:~g3 efd|cAG GBd|~g3 efd|cAG FED|
~g3 efd|~g3 efd|gfg afd|1 cAG GBd:|2 cAG G2E||
|:DBB DBB|DAA DAA|~G3 GBd|cAG FGA|
DBB DBB|DAA DAA|~G3 GBd|1 cAF G2E:|2 cAF G2A||
|:~B3 ~D3|~A3 ~D3|~G3 GBd|cAG FGA|
~B3 ~D3|~A3 ~D3|~G3 GBd|cAF G2A:|
|:B2G A2G|d2G G2A|B2G A2G|cAG FGA|
BAG AGF|GFD FGA|fag fed|cAF G2A:|
"Variations:"
|:BAG A2d|cAG ~G3|BAG A2d|cAG FGA|
BAG A2d|cAG GBd|gbg afd|cAF ~G3:|
|:B2G Bdc|~A3 dcA|~G3 GBd|cAG FGA|
~B3 Bdc|~A3 dAG|FDE F2d|1 cAG ~G3:|2 cAG Gfg||
|:fdd edd|fdd edd|fdd ed^c|dcA Gfg|
fdd edd|fdd ed^c|dfa ged|1 cAG Gfg:|2 cAG GBd||
|:~g3 efd|cAG GBd|~g3 efd|cAG FGA|
dgg f2d|~g3 f2d|faf ged|1 cAG GBd:|2 cAG ~G3||
|:DBB DBB|DAA DAA|~G3 GBd|cAG FGA|
DBB DBB|DAA DAA|~G3 GBd|1 cAF ~G3:|2 cAF G2A||
|:~B3 ~D3|~A3 ~D3|~G3 GBd|cAG FGA|
~B3 ~D3|~A3 ~D3|~G3 GBd|cAF G2A:|
|:~B2G ~A2G|d2G ~G2A|~B2G ~A2G|cAG FGA|
~B3 ABA|GFD FGA|fag fed|cAF G2A:|


